resources/svg/paws.svg

<svg xmlns="http://www.w3.org/2000/svg" viewBox="0 0 15 15" fill="currentColor"><path d="M4.85236 1.88461L4.1171 0.333984L3.21353 0.762432L3.9488 2.31306L4.85236 1.88461Z" fill="black"/><path d="M2.39784 3.00226L1.66257 1.45163L0.759003 1.88008L1.49427 3.4307L2.39784 3.00226Z" fill="black"/><path d="M7.29879 3.08276L6.59334 1.45977L5.67623 1.8584L6.38168 3.48139L7.29879 3.08276Z" fill="black"/><path d="M3.75092 3.7728C4.30054 3.547 4.94715 3.53962 5.52178 3.85049L7.18278 4.67632C7.96844 5.09473 8.306 6.16042 7.63626 6.91156C7.33506 7.28504 6.87231 7.44117 6.45684 7.44117H5.72047C5.52792 7.44117 5.38392 7.5161 5.31654 7.60221L5.31102 7.60914L4.88393 8.13553C4.58301 8.51718 4.11513 8.67646 3.69547 8.67646C2.77833 8.67646 2.03391 7.80991 2.2242 6.89787L2.59238 5.13317C2.59524 5.11946 2.59867 5.10589 2.60267 5.09247C2.7586 4.5693 3.15234 4.01871 3.75092 3.7728Z" fill="black"/><path d="M1.72282 5.53167L0.987551 3.98104L0.0839844 4.40949L0.81925 5.96012L1.72282 5.53167Z" fill="black"/><path d="M11.0512 8.07777L11.7864 6.52714L10.8829 6.09869L10.1476 7.64932L11.0512 8.07777Z" fill="black"/><path d="M13.5057 9.19541L14.241 7.64478L13.3374 7.21634L12.6022 8.76696L13.5057 9.19541Z" fill="black"/><path d="M8.6183 9.2461L9.32375 7.6231L8.40664 7.22447L7.70119 8.84747L8.6183 9.2461Z" fill="black"/><path d="M9.44318 9.69145C9.95642 9.31088 10.6859 9.23865 11.2746 9.54821C11.8663 9.80231 12.2512 10.3543 12.402 10.9326C12.4041 10.9406 12.406 10.9486 12.4076 10.9567L12.7758 12.7214C12.9616 13.6119 12.3051 14.5 11.3045 14.5C10.8849 14.5 10.417 14.3407 10.1161 13.9591L9.68348 13.4257C9.6161 13.3396 9.4721 13.2647 9.27954 13.2647H8.54318C8.1221 13.2647 7.65246 13.1043 7.35166 12.7199C6.80086 12.0159 6.97792 10.9468 7.81724 10.4998L7.82972 10.4934L9.44318 9.69145Z" fill="black"/><path d="M14.1807 11.7248L14.916 10.1742L14.0124 9.74575L13.2772 11.2964L14.1807 11.7248Z" fill="black"/></svg>

<svg xmlns="http://www.w3.org/2000/svg" viewBox="0 0 15 15" fill="currentColor"><path d="M4.852 1.885L4.117.334l-.903.428.735 1.551.903-.428zM2.398 3.002l-.735-1.55-.904.428.735 1.55.904-.428zm4.901.081L6.593 1.46l-.917.398.706 1.623.917-.398zm-3.549.69a2.057 2.057 0 011.772.077l1.66.826c.786.419 1.124 1.484.454 2.236-.3.373-.764.53-1.18.53H5.72c-.192 0-.336.074-.403.16l-.006.007-.427.527c-.301.381-.769.54-1.189.54-.917 0-1.661-.866-1.47-1.778l.367-1.765a.5.5 0 01.01-.04c.157-.524.55-1.074 1.149-1.32zM1.723 5.532L.988 3.98l-.904.428.735 1.551.904-.428zm9.328 2.546l.735-1.55-.903-.43-.735 1.551.903.429zm2.455 1.117l.735-1.55-.904-.429-.735 1.551.904.428zm-4.888.051l.706-1.623-.917-.399L7.7 8.847l.917.4zm.825.445a1.751 1.751 0 011.832-.143c.591.254.976.806 1.127 1.385a.4.4 0 01.006.024l.368 1.764c.186.89-.47 1.779-1.471 1.779-.42 0-.888-.16-1.189-.54l-.433-.534c-.067-.086-.21-.161-.403-.161h-.737c-.42 0-.89-.16-1.191-.545a1.479 1.479 0 01.465-2.22l.013-.007 1.613-.802zm4.737 2.034l.736-1.55-.904-.43-.735 1.551.904.429z" fill="currentColor"/></svg>
